assets/Next track button/Flat/next_track_button_flat.svg

<svg width="32" height="32" viewBox="0 0 32 32" fill="none" xmlns="http://www.w3.org/2000/svg">
<path d="M2 6C2 3.79086 3.79086 2 6 2H26C28.2091 2 30 3.79086 30 6V26C30 28.2091 28.2091 30 26 30H6C3.79086 30 2 28.2091 2 26V6Z" fill="#00A6ED"/>
<path d="M16 17H15.9607L9.69338 23.0308C9.05807 23.6421 8 23.1919 8 22.3102L8 9.68974C8 8.80808 9.05807 8.35784 9.69338 8.96916L15.9608 15H16V9.68974C16 8.80808 17.0581 8.35784 17.6934 8.96916L23.9608 15H24V9.49996C24 9.22382 24.2239 8.99996 24.5 8.99996H25.5C25.7761 8.99996 26 9.22382 26 9.49996V22.5C26 22.7761 25.7761 23 25.5 23H24.5C24.2239 23 24 22.7761 24 22.5V17H23.9607L17.6934 23.0308C17.0581 23.6421 16 23.1919 16 22.3102V17Z" fill="white"/>
</svg>

<svg xmlns="http://www.w3.org/2000/svg" width="32" height="32" fill="none"><path fill="#00A6ED" d="M2 6a4 4 0 0 1 4-4h20a4 4 0 0 1 4 4v20a4 4 0 0 1-4 4H6a4 4 0 0 1-4-4V6Z"/><path fill="#fff" d="M16 17h-.04l-6.267 6.03c-.635.612-1.693.162-1.693-.72V9.69c0-.882 1.058-1.332 1.693-.72L15.961 15H16V9.69c0-.882 1.058-1.332 1.693-.72L23.961 15H24V9.5a.5.5 0 0 1 .5-.5h1a.5.5 0 0 1 .5.5v13a.5.5 0 0 1-.5.5h-1a.5.5 0 0 1-.5-.5V17h-.04l-6.267 6.03c-.635.612-1.693.162-1.693-.72V17Z"/></svg>
